Yaru++/apps/scalable/teamviewer.svg

<svg height="256" width="256" xmlns="http://www.w3.org/2000/svg" xmlns:xlink="http://www.w3.org/1999/xlink">
  <linearGradient id="linearGradient4358" gradientUnits="userSpaceOnUse" x1="88" x2="488" y1="88" y2="488">
    <stop offset="0" stop-opacity=".588235"/>
    <stop offset="1" stop-opacity=".205556"/>
  </linearGradient>
  <filter id="filter4380" color-interpolation-filters="sRGB" height="1.088" width="1.106" x="-.05" y="-.04">
    <feGaussianBlur stdDeviation="8.48"/>
  </filter>
  <filter id="filter4346" color-interpolation-filters="sRGB" height="1.022" width="1.026" x="-.01" y="-.01">
    <feGaussianBlur stdDeviation="2.12"/>
  </filter>
  <path d="m141.84323 74c-70.59344 0-78.18921 7.250835-77.84323 77.98706v146.01294 146.01294c-.34598 70.73623 7.24979 77.98706 77.84323 77.98706h292.31354c70.59344 0 79.78033-7.27652 77.84323-77.98706v-146.01294-146.01294c0-70.737067-7.24979-77.98706-77.84323-77.98706z" filter="url(#filter4346)" opacity=".1" transform="matrix(.5 0 0 .5 -16.116488 -20.825537)"/>
  <path d="m141.84323 74c-70.59344 0-78.18921 7.250835-77.84323 77.98706v146.01294 146.01294c-.34598 70.73623 7.24979 77.98706 77.84323 77.98706h292.31354c70.59344 0 79.78033-7.27652 77.84323-77.98706v-146.01294-146.01294c0-70.737067-7.24979-77.98706-77.84323-77.98706z" fill="url(#linearGradient4358)" filter="url(#filter4380)" opacity=".3" transform="matrix(.5 0 0 .5 -16.116488 -20.825235)"/>
  <path d="m53.695112 13.174464c-36.098811 0-39.983002 3.690159-39.80608 39.689839v74.310167 74.31016c-.176922 35.99969 3.707269 39.68984 39.80608 39.68984h148.387318c36.09881 0 40.77464-3.70276 39.80608-39.68984v-74.31016-74.310167c0-36.00011-3.70727-39.689839-39.80608-39.689839z" opacity=".2"/>
  <path d="m200.95649 15.174464c35.29673 0 39.09461 3.625419 38.92162 38.993529v73.006477 73.00647c.17299 35.36812-3.62489 38.99353-38.92162 38.99353h-146.156758c-35.296716 0-38.921616-3.625-38.921616-38.99353v-73.00647-73.006477c0-35.36853 3.6249-38.993529 38.921616-38.993529z" fill="#37a6e6"/>
  <path d="m54.805392 15.174464c-35.296728 0-39.09487 3.626029-38.92188 38.994139v2c-.17299-35.36811 3.625152-38.99414 38.92188-38.99414h146.156238c35.29673 0 38.92188 3.62561 38.92188 38.99414v-2c0-35.36853-3.62515-38.994139-38.92188-38.994139z" fill="#fff" opacity=".3"/>
  <path d="m54.810792 239.17447c-35.296731 0-39.094875-3.62603-38.921885-38.99414v-2c-.17299 35.36811 3.625154 38.99414 38.921885 38.99414h146.156238c35.29673 0 38.92188-3.62561 38.92188-38.99414v2c0 35.36853-3.62515 38.99414-38.92188 38.99414z" opacity=".2"/>
  <path d="m63.988281 25c-19.442996.14814-35.089004 15.81233-34.958984 35-.13003 19.18768 15.515982 34.85186 34.958984 35 19.452714-.1347 35.112412-15.80284 34.982422-35 .129981-19.19715-15.529715-34.8653-34.982422-35zm-8.179687 23.783203-1.949219 7.1875h20.269531l-1.949218-7.1875 24.261718 11.216797v.0078l-24.246094 11.21875 1.949219-7.1875h-20.267578l1.949219 7.1875-24.279297-11.21875z" fill="#fff" transform="matrix(2.28757651534 0 0 2.28571427865 -18.45895875717 -9.96838811491)"/>
  <path d="m63.988281 25c-19.442996.14814-35.089004 15.81233-34.958984 35-.13003 19.18768 15.515982 34.85186 34.958984 35 19.452714-.1347 35.112412-15.80284 34.982422-35 .129981-19.19715-15.529715-34.8653-34.982422-35zm-8.179687 23.783203-1.949219 7.1875h20.269531l-1.949218-7.1875 24.261718 11.216797v.0078l-24.246094 11.21875 1.949219-7.1875h-20.267578l1.949219 7.1875-24.279297-11.21875z" fill="#fff" transform="matrix(2.28757651534 0 0 2.28571427865 -18.45895875717 -9.96838811491)"/>
  <g transform="matrix(2.28757651534 0 0 2.28571427865 -5.64167211688 -395.06404406757)">
    <path d="m63.988281 25c-19.442996.14814-35.089004 15.81233-34.958984 35-.13003 19.18768 15.515982 34.85186 34.958984 35 19.452714-.1347 35.112412-15.80284 34.982422-35 .129981-19.19715-15.529715-34.8653-34.982422-35zm-8.179687 23.783203-1.949219 7.1875h20.269531l-1.949218-7.1875 24.261718 11.216797v.0078l-24.246094 11.21875 1.949219-7.1875h-20.267578l1.949219 7.1875-24.279297-11.21875z" fill="#fff" transform="translate(-5.602998 168.47935)"/>
    <path d="m50.205395 217.26266-24.261483 11.22461.946005.4375 23.043973-10.6615zm16.371549 0 .27151 1.00061 23.052506 10.65808.937469-.43408v-.008zm-18.083408 7.18713-.237356.875h20.269984l-.237356-.875zm-25.064906 4.46729c-.00084.14578-.0036.29131-.0026.4375-.130033 19.18768 15.515695 34.85186 34.9587 35 19.452713-.1347 35.112597-15.80284 34.982607-35 .00099-.14626-.0017-.29165-.0026-.4375-.109081 18.99684-15.675543 34.42883-34.980045 34.5625-19.294726-.14701-34.84708-15.57517-34.956138-34.5625zm24.845477 4.47668 1.67771 6.18653.27151.12561-1.711864-6.31214zm20.030071 0-1.711864 6.31214.271506-.12561 1.67771-6.18653z" opacity=".2"/>
  </g>
</svg>

<svg xmlns="http://www.w3.org/2000/svg" xmlns:xlink="http://www.w3.org/1999/xlink" width="256" height="256" version="1.0">
 <defs>
  <linearGradient id="a">
   <stop id="stop2" offset="0" stop-color="#68676b"/>
   <stop id="stop4" offset=".8" stop-color="#424048"/>
   <stop id="stop6" offset="1" stop-color="#241f31"/>
  </linearGradient>
  <radialGradient id="d" cx="279.422" cy="446.483" r="224" fx="279.422" fy="446.483" gradientTransform="matrix(1.34416,6e-4,-6.2e-4,1.38763,-121.22,-718.103)" gradientUnits="userSpaceOnUse" xlink:href="#a"/>
  <linearGradient id="e" x1="43.844" x2="-60" y1="234" y2="234" gradientTransform="matrix(1.0015,0,0,0.99993,72.09,56.015)" gradientUnits="userSpaceOnUse" xlink:href="#b"/>
  <linearGradient id="b">
   <stop id="stop11" offset="0" stop-color="#d5d3cf"/>
   <stop id="stop13" offset=".038" stop-color="#e3e2df"/>
   <stop id="stop15" offset=".077" stop-color="#c0bfbc"/>
   <stop id="stop17" offset=".923" stop-color="#c0bfbc"/>
   <stop id="stop19" offset=".962" stop-color="#e3e2df"/>
   <stop id="stop21" offset="1" stop-color="#d5d3cf"/>
  </linearGradient>
  <linearGradient id="linearGradient1007" x1="160.305" x2="161.33" y1="240.139" y2="135.579" gradientTransform="matrix(0.54625232,0,0,0.54625232,-6.0941965,-68.413544)" gradientUnits="userSpaceOnUse" xlink:href="#linearGradient1018"/>
  <linearGradient id="linearGradient1018">
   <stop id="stop2-3" offset="0" style="stop-color:#37a6e6"/>
   <stop id="stop4-6" offset="1" style="stop-color:#1a7fd4"/>
  </linearGradient>
  <linearGradient id="linearGradient1108" x1="296" x2="296" y1="-212" y2="202.4" gradientUnits="userSpaceOnUse" xlink:href="#linearGradient1013"/>
  <linearGradient id="linearGradient1013">
   <stop id="stop1005" offset="0" style="stop-color:#ffffff"/>
   <stop style="stop-color:#ffffff;stop-opacity:0.09803922" id="stop1007" offset=".135"/>
   <stop style="stop-color:#ffffff;stop-opacity:0" id="stop1009" offset="1"/>
  </linearGradient>
  <clipPath id="clipPath1082-3" clipPathUnits="userSpaceOnUse">
   <path style="fill:#8c59d9" d="M 361.9375,-212 C 507.2348,-212 528,-191.28677 528,-46.125 V 70.125 C 528,215.28618 507.2348,236 361.9375,236 H 214.0625 C 68.7652,236 48,215.28618 48,70.125 V -46.125 C 48,-191.28677 68.7652,-212 214.0625,-212 Z"/>
  </clipPath>
  <linearGradient id="linearGradient4358" x1="88" x2="488" y1="88" y2="488" gradientUnits="userSpaceOnUse" xlink:href="#linearGradient4360"/>
  <linearGradient id="linearGradient4360">
   <stop id="stop4362" offset="0" style="stop-color:#000000;stop-opacity:0.58823532"/>
   <stop id="stop4366" offset="1" style="stop-color:#000000;stop-opacity:0.20555556"/>
  </linearGradient>
  <filter style="color-interpolation-filters:sRGB" id="filter4380" width="1.106" height="1.088" x="-.05" y="-.04">
   <feGaussianBlur id="feGaussianBlur4382" stdDeviation="8.48"/>
  </filter>
  <filter style="color-interpolation-filters:sRGB" id="filter4346" width="1.026" height="1.022" x="-.01" y="-.01">
   <feGaussianBlur id="feGaussianBlur4348" stdDeviation="2.12"/>
  </filter>
 </defs>
 <path style="opacity:0.1;filter:url(#filter4346)" d="M 141.84323,74 C 71.24979,74 63.65402,81.250835 64,151.98706 V 298 444.01294 C 63.65402,514.74917 71.24979,522 141.84323,522 H 434.15677 C 504.75021,522 513.9371,514.72348 512,444.01294 V 298 151.98706 C 512,81.249993 504.75021,74 434.15677,74 Z" transform="matrix(0.5,0,0,0.5,-16.116488,-20.825537)"/>
 <path style="opacity:0.3;fill:url(#linearGradient4358);filter:url(#filter4380)" d="M 141.84323,74 C 71.24979,74 63.65402,81.250835 64,151.98706 V 298 444.01294 C 63.65402,514.74917 71.24979,522 141.84323,522 H 434.15677 C 504.75021,522 513.9371,514.72348 512,444.01294 V 298 151.98706 C 512,81.249993 504.75021,74 434.15677,74 Z" transform="matrix(0.5,0,0,0.5,-16.116488,-20.825235)"/>
 <path style="opacity:0.2" d="m 53.695112,13.174464 c -36.098811,0 -39.983002,3.690159 -39.80608,39.689839 v 74.310167 74.31016 c -0.176922,35.99969 3.707269,39.68984 39.80608,39.68984 H 202.08243 c 36.09881,0 40.77464,-3.70276 39.80608,-39.68984 V 127.17447 52.864303 c 0,-36.00011 -3.70727,-39.689839 -39.80608,-39.689839 z"/>
 <path style="fill:#37a6e6" d="m 200.95649,15.174464 c 35.29673,0 39.09461,3.625419 38.92162,38.993529 v 73.006477 73.00647 c 0.17299,35.36812 -3.62489,38.99353 -38.92162,38.99353 H 54.799732 c -35.296716,0 -38.921616,-3.625 -38.921616,-38.99353 V 127.17447 54.167993 c 0,-35.36853 3.6249,-38.993529 38.921616,-38.993529 z"/>
 <path style="opacity:0.3;fill:#ffffff" d="m 54.805392,15.174464 c -35.296728,0 -39.09487,3.626029 -38.92188,38.994139 v 2 c -0.17299,-35.36811 3.625152,-38.99414 38.92188,-38.99414 H 200.96163 c 35.29673,0 38.92188,3.62561 38.92188,38.99414 v -2 c 0,-35.36853 -3.62515,-38.994139 -38.92188,-38.994139 z"/>
 <path style="opacity:0.2" d="m 54.810792,239.17447 c -35.296731,0 -39.094875,-3.62603 -38.921885,-38.99414 v -2 c -0.17299,35.36811 3.625154,38.99414 38.921885,38.99414 H 200.96703 c 35.29673,0 38.92188,-3.62561 38.92188,-38.99414 v 2 c 0,35.36853 -3.62515,38.99414 -38.92188,38.99414 z"/>
 <g transform="matrix(2.155601,0,0,2.1538462,-296.70299,-359.0365)">
  <g transform="matrix(0.4642857,0,0,0.4642857,4.4140415,130.86682)">
   <g transform="matrix(2.2857143,0,0,2.2857143,281.31721,-317.89455)">
    <path style="fill:#ffffff" d="M 63.988281,25 C 44.545285,25.14814 28.899277,40.81233 29.029297,60 28.899267,79.18768 44.545279,94.85186 63.988281,95 83.440995,94.8653 99.100693,79.19716 98.970703,60 99.100684,40.80285 83.440988,25.1347 63.988281,25 Z m -8.179687,23.783203 -1.949219,7.1875 H 74.128906 L 72.179688,48.783203 96.441406,60 v 0.0078 l -24.246094,11.21875 1.949219,-7.1875 H 53.876953 l 1.949219,7.1875 L 31.546875,60.0078 Z" transform="translate(-5.6029981,168.47935)"/>
   </g>
  </g>
 </g>
 <g transform="matrix(2.155601,0,0,2.1538462,-296.70299,-359.0365)">
  <g transform="matrix(0.4642857,0,0,0.4642857,4.4140415,130.86682)">
   <g transform="matrix(2.2857143,0,0,2.2857143,281.31721,-317.89455)">
    <path d="M 63.988281,25 C 44.545285,25.14814 28.899277,40.81233 29.029297,60 28.899267,79.18768 44.545279,94.85186 63.988281,95 83.440995,94.8653 99.100693,79.19716 98.970703,60 99.100684,40.80285 83.440988,25.1347 63.988281,25 Z m -8.179687,23.783203 -1.949219,7.1875 H 74.128906 L 72.179688,48.783203 96.441406,60 v 0.0078 l -24.246094,11.21875 1.949219,-7.1875 H 53.876953 l 1.949219,7.1875 L 31.546875,60.0078 Z" transform="translate(-5.6029981,168.47935)" style="fill:#ffffff"/>
   </g>
  </g>
 </g>
 <g transform="matrix(2.155601,0,0,2.1538462,-296.70299,-359.0365)">
  <g transform="matrix(0.4642857,0,0,0.4642857,4.4140415,130.86682)">
   <g transform="matrix(2.2857143,0,0,2.2857143,281.31721,-317.89455)">
    <path style="fill:#ffffff" d="M 63.988281,25 C 44.545285,25.14814 28.899277,40.81233 29.029297,60 28.899267,79.18768 44.545279,94.85186 63.988281,95 83.440995,94.8653 99.100693,79.19716 98.970703,60 99.100684,40.80285 83.440988,25.1347 63.988281,25 Z m -8.179687,23.783203 -1.949219,7.1875 H 74.128906 L 72.179688,48.783203 96.441406,60 v 0.0078 l -24.246094,11.21875 1.949219,-7.1875 H 53.876953 l 1.949219,7.1875 L 31.546875,60.0078 Z" transform="translate(-5.6029981,168.47935)"/>
    <path style="opacity:0.2" d="m 50.205395,217.26266 -24.261483,11.22461 0.946005,0.4375 23.043973,-10.6615 z m 16.371549,0 0.27151,1.00061 23.052506,10.65808 0.937469,-0.43408 v -0.008 z m -18.083408,7.18713 -0.237356,0.875 h 20.269984 l -0.237356,-0.875 z m -25.064906,4.46729 c -8.4e-4,0.14578 -0.0036,0.29131 -0.0026,0.4375 -0.130033,19.18768 15.515695,34.85186 34.9587,35 19.452713,-0.1347 35.112597,-15.80284 34.982607,-35 9.9e-4,-0.14626 -0.0017,-0.29165 -0.0026,-0.4375 -0.109081,18.99684 -15.675543,34.42883 -34.980045,34.5625 -19.294726,-0.14701 -34.84708,-15.57517 -34.956138,-34.5625 z m 24.845477,4.47668 1.67771,6.18653 0.27151,0.12561 -1.711864,-6.31214 z m 20.030071,0 -1.711864,6.31214 0.271506,-0.12561 1.67771,-6.18653 z"/>
   </g>
  </g>
 </g>
</svg>
